X: 2095
T:The Sprite's tune
C:anon.
O:England
Z:Transcribed by Frank Nordberg - http://www.musicaviva.com
M:C|
L:1/4
K:C
c3c c_BAG |F3G AGFE |D3E/F/ GFED |E4 E4:|
|:F3G ED E2 |D4 D4 |F>GA2 A>GE2 |D4 D4|
F>GA2 G2A2 |GGc2 cGG2|D2EF G>FED |C4 C4:|
